X:18
T:LANGOLEE- New Langolee
S:from 'The Irish Fair', 1772
Q:1/4=120
L:1/8
M:6/8
K:D
A|A3/2B/c d3/2e/f|g3/2b/a g3/2f/e|fdB Ade|f3/2g/ed2::g|\
f2g2a2|{c'/}b2g {b/}afd|f3/2g/a b3/2c'/d'|ded cBA|\
G(bg) F(af)|ede fdB|{e/}dcB Aag|f3/2g/ed2|]

